src/_assets/profile/rankcard-bg.svg

<svg width="292" height="118" viewBox="0 0 292 118" fill="none" xmlns="http://www.w3.org/2000/svg">
<path d="M291.5 102V27.2418C291.5 18.6822 284.579 11.7418 276.017 11.7418H214.756C211.002 11.7418 208.53 10.0369 206.089 7.85643C205.609 7.42777 205.129 6.97822 204.639 6.52002C202.656 4.66522 200.522 2.66852 197.666 1.34019C196.234 0.674421 194.661 0.5 193.154 0.5H103.623C102.266 0.5 100.843 0.650202 99.5454 1.25704C97.9168 2.01888 96.4162 3.07319 94.9689 4.20745C94.2843 4.74398 93.6068 5.30227 92.9327 5.85783L92.8163 5.95375C92.1019 6.54238 91.3903 7.12693 90.6665 7.68772C87.7686 9.93323 84.7436 11.7418 80.9003 11.7418H15.9889C7.42801 11.7418 0.5 18.6819 0.5 27.2419V102C0.5 110.56 7.43959 117.5 16 117.5H276C284.56 117.5 291.5 110.56 291.5 102Z" fill="url(#paint0_linear_1_1288)" stroke="#D2D8E0"/>
<defs>
<linearGradient id="paint0_linear_1_1288" x1="7.99999" y1="10.5" x2="194.056" y2="210.283" gradientUnits="userSpaceOnUse">
<stop stop-color="#DDE8FF"/>
<stop offset="0.536381" stop-color="#9FBDFF"/>
<stop offset="0.74" stop-color="#5388FF"/>
</linearGradient>
</defs>
</svg>

<svg xmlns="http://www.w3.org/2000/svg" width="292" height="118" fill="none"><path fill="url(#a)" stroke="#D2D8E0" d="M291.5 102V27.242c0-8.56-6.921-15.5-15.483-15.5h-61.261c-3.754 0-6.226-1.705-8.667-3.886-.48-.428-.96-.878-1.45-1.336-1.983-1.855-4.117-3.851-6.973-5.18-1.432-.666-3.005-.84-4.512-.84h-89.531c-1.357 0-2.78.15-4.078.757-1.628.762-3.129 1.816-4.576 2.95-.685.537-1.362 1.095-2.036 1.65l-.117.097a92 92 0 01-2.15 1.734c-2.897 2.245-5.922 4.054-9.766 4.054H15.99c-8.562 0-15.49 6.94-15.49 15.5V102c0 8.56 6.94 15.5 15.5 15.5h260c8.56 0 15.5-6.94 15.5-15.5z"/><defs><linearGradient id="a" x1="8" x2="194.056" y1="10.5" y2="210.283" gradientUnits="userSpaceOnUse"><stop stop-color="#DDE8FF"/><stop offset=".536" stop-color="#9FBDFF"/><stop offset=".74" stop-color="#5388FF"/></linearGradient></defs></svg>
